packages/tokens/icons/leaf2/size16Px.svg

<svg viewBox="0 0 16 16" fill="none" xmlns="http://www.w3.org/2000/svg" width="1em" height="1em"><path d="M9.66665 12.5C11.1914 12.5 12.5 11.224 12.5 9C12.5 6.28709 9.92703 3.10278 8.67223 1.71113C8.30754 1.30666 7.69249 1.30666 7.32779 1.71113C6.07298 3.10277 3.5 6.28708 3.5 9C3.5 11.224 4.80861 12.5 6.33332 12.5" stroke="currentColor" stroke-linecap="round"/><path d="M8.00001 4.5L8.00001 14.5M6 9.00003L8 11L10 9.00003M6.5 6.50003L8 8.00003L9.5 6.50003" stroke="currentColor" stroke-linecap="round"/></svg>

<svg xmlns="http://www.w3.org/2000/svg" fill="none" viewBox="0 0 16 16" width="1em" height="1em"><path stroke="currentColor" stroke-linecap="round" d="M9.667 12.5c1.524 0 2.833-1.276 2.833-3.5 0-2.713-2.573-5.897-3.828-7.289a.896.896 0 0 0-1.344 0C6.073 3.103 3.5 6.287 3.5 9c0 2.224 1.309 3.5 2.833 3.5"/><path stroke="currentColor" stroke-linecap="round" d="M8 4.5v10M6 9l2 2 2-2M6.5 6.5 8 8l1.5-1.5"/></svg>
